_icons/SVG/543-venipede-shiny.svg

<svg xmlns="http://www.w3.org/2000/svg" viewBox="0 0 32 32"><title>543-venipede-shiny</title><path d="M2.99068,27.62035c.55763,2.85791,2.246,3.211,4.07255,3.25809a4.89874,4.89874,0,0,1,2.2263-4.07256C6.30762,27.86787,4.05125,28.27983,2.99068,27.62035Z" style="fill:#434c4b"/><path d="M4.40244,13.71935c-.063.04538-.1132.09549-.17468.14144a5.49391,5.49391,0,0,1,2.1244,5.48735c-.48071,2.97542-2.92242,5.05591-5.45369,4.64691a3.9405,3.9405,0,0,1-.65172-.186,5.6035,5.6035,0,0,0,2.74393,3.81134c1.06057.65948,3.31694.24752,6.29885-.81447A5.38472,5.38472,0,0,1,8.638,20.17559v-.02272a8.61485,8.61485,0,0,1,5.32142-7.38378C13.94365,10.90626,14.71471,8.89444,16,6.49733V1.12156C11.13578,1.12156,7.05525,5.66374,4.40244,13.71935Z" style="fill:#e56142"/><path d="M4.22776,13.86079c-.31873.23827-.60972.48656-.88843.73888a4.78471,4.78471,0,0,1,1.56626,4.51479C4.49328,21.66655,2.399,23.451.22777,23.10027c-.04454-.0072-.08357-.02753-.12747-.03642.03932.25359.08561.50371.14645.74516a3.9405,3.9405,0,0,0,.65172.186c2.53127.409,4.973-1.67149,5.45369-4.64691A5.49391,5.49391,0,0,0,4.22776,13.86079Z" style="fill:#505957"/><path d="M4.90559,19.11446a4.78471,4.78471,0,0,0-1.56626-4.51479,9.44069,9.44069,0,0,0-3.239,8.46418c.0439.00889.08293.02922.12747.03642C2.399,23.451,4.49328,21.66655,4.90559,19.11446Z" style="fill:#e56142"/><path d="M13.95938,12.76909A8.61485,8.61485,0,0,0,8.638,20.15287v.02272C9.79621,18.09362,12.17722,16.0163,16,14.341V6.49733C14.71471,8.89444,13.94365,10.90626,13.95938,12.76909Z" style="fill:#505957"/><path d="M8.299,25.36356l3.16253.68206L16,30.38968V14.341C8.84652,17.476,6.69036,22.01683,8.299,25.36356Z" style="fill:#eb6b48"/><path d="M16,30.38968l-4.53843-4.34406L8.299,25.36356a5.75289,5.75289,0,0,0,.99049,1.44232C10.56939,29.21943,13.85084,30.38968,16,30.38968Z" style="fill:#434c4b"/><path d="M9.80539,19.421c-1.16348,0-2.15164,1.12966-2.55,2.71767a8.25625,8.25625,0,0,0,5.29221,1.541C12.54762,21.32764,11.31984,19.421,9.80539,19.421Z" style="fill:#f57552"/><path d="M7.06323,23.67964c0,2.352,1.2277,4.25874,2.74216,4.25874s2.74223-1.90673,2.74223-4.25874a8.25625,8.25625,0,0,1-5.29221-1.541A6.32828,6.32828,0,0,0,7.06323,23.67964Z" style="fill:#ffd96c"/><path d="M8.299,24.36234c0,1.22954.635,2.22631,1.41834,2.22631s1.4184-.99677,1.4184-2.22631a3.34551,3.34551,0,0,0-.09366-.77678,8.44063,8.44063,0,0,1-2.409-.64289A3.04155,3.04155,0,0,0,8.299,24.36234Z" style="fill:#373f3f"/><circle cx="9.70457" cy="24.31187" r="0.63223" style="fill:#edeeee"/><path d="M7.95851,10.13618c.59123-.78673-4.3368-5.83142-5.88436-6.1572-.62228,0,1.86827,3.74373,4.66992,7.48745l.00007-.00014C6.77308,10.99469,7.12244,10.54716,7.95851,10.13618Z" style="fill:#f57552"/><path d="M11.70746,13.71928c-1.31042-2.11247-2.95721-3.97014-3.74895-3.5831-.83607.411-1.18543.85851-1.21437,1.33011l-.00007.00014c.95619,1.27775,1.94675,2.55167,2.864,3.68057C10.21608,14.03159,10.92927,13.65075,11.70746,13.71928Z" style="fill:#5c6664"/><path d="M11.70746,13.71928c-.77819-.06853-1.49138.31231-2.09934,1.42772,1.7703,2.17859,3.2626,3.80661,3.67252,3.80661C14.129,18.5389,13.11153,15.98264,11.70746,13.71928Z" style="fill:#f57552"/><path d="M29.00932,27.62035c-.55763,2.85791-2.246,3.211-4.07255,3.25809a4.89874,4.89874,0,0,0-2.2263-4.07256C25.69238,27.86787,27.94875,28.27983,29.00932,27.62035Z" style="fill:#373f3f"/><path d="M27.59756,13.71935c.063.04538.1132.09549.17468.14144a5.49391,5.49391,0,0,0-2.1244,5.48735c.48071,2.97542,2.92242,5.05591,5.45369,4.64691a3.9405,3.9405,0,0,0,.65172-.186,5.6035,5.6035,0,0,1-2.74393,3.81134c-1.06057.65948-3.31694.24752-6.29885-.81447a5.38472,5.38472,0,0,0,.65157-6.63029v-.02272a8.61485,8.61485,0,0,0-5.32142-7.38378C18.05635,10.90626,17.28529,8.89444,16,6.49733V1.12156C20.86422,1.12156,24.94475,5.66374,27.59756,13.71935Z" style="fill:#dd583e"/><path d="M27.77224,13.86079c.31873.23827.60972.48656.88843.73888a4.78471,4.78471,0,0,0-1.56626,4.51479c.41231,2.55209,2.50664,4.33658,4.67782,3.98581.04454-.0072.08357-.02753.12747-.03642-.03932.25359-.08561.50371-.14645.74516a3.9405,3.9405,0,0,1-.65172.186c-2.53127.409-4.973-1.67149-5.45369-4.64691A5.49391,5.49391,0,0,1,27.77224,13.86079Z" style="fill:#434c4b"/><path d="M27.09441,19.11446a4.78471,4.78471,0,0,1,1.56626-4.51479,9.44069,9.44069,0,0,1,3.239,8.46418c-.0439.00889-.08293.02922-.12747.03642C29.60105,23.451,27.50672,21.66655,27.09441,19.11446Z" style="fill:#dd583e"/><path d="M18.04062,12.76909A8.61485,8.61485,0,0,1,23.362,20.15287v.02272C22.20379,18.09362,19.82278,16.0163,16,14.341V6.49733C17.28529,8.89444,18.05635,10.90626,18.04062,12.76909Z" style="fill:#434c4b"/><path d="M23.701,25.36356l-3.16253.68206L16,30.38968V14.341C23.15348,17.476,25.30964,22.01683,23.701,25.36356Z" style="fill:#e56142"/><path d="M16,30.38968l4.53843-4.34406,3.16253-.68206a5.75289,5.75289,0,0,1-.99049,1.44232C21.43061,29.21943,18.14916,30.38968,16,30.38968Z" style="fill:#373f3f"/><path d="M22.19461,19.421c1.16348,0,2.15164,1.12966,2.55,2.71767a8.25625,8.25625,0,0,1-5.29221,1.541C19.45238,21.32764,20.68016,19.421,22.19461,19.421Z" style="fill:#eb6b48"/><path d="M24.93677,23.67964c0,2.352-1.2277,4.25874-2.74216,4.25874s-2.74223-1.90673-2.74223-4.25874a8.25625,8.25625,0,0,0,5.29221-1.541A6.32828,6.32828,0,0,1,24.93677,23.67964Z" style="fill:#ffd04d"/><path d="M23.701,24.36234c0,1.22954-.635,2.22631-1.41834,2.22631s-1.4184-.99677-1.4184-2.22631a3.34551,3.34551,0,0,1,.09366-.77678,8.44063,8.44063,0,0,0,2.409-.64289A3.04155,3.04155,0,0,1,23.701,24.36234Z" style="fill:#2b3332"/><circle cx="22.29543" cy="24.31187" r="0.63223" style="fill:#e3e5e5"/><path d="M24.04149,10.13618c-.59123-.78673,4.3368-5.83142,5.88436-6.1572.62228,0-1.86827,3.74373-4.66992,7.48745l-.00007-.00014C25.22692,10.99469,24.87756,10.54716,24.04149,10.13618Z" style="fill:#eb6b48"/><path d="M20.29254,13.71928c1.31042-2.11247,2.95721-3.97014,3.749-3.5831.83607.411,1.18543.85851,1.21437,1.33011l.00007.00014c-.95619,1.27775-1.94675,2.55167-2.864,3.68057C21.78392,14.03159,21.07073,13.65075,20.29254,13.71928Z" style="fill:#505957"/><path d="M20.29254,13.71928c.77819-.06853,1.49138.31231,2.09934,1.42772-1.7703,2.17859-3.2626,3.80661-3.67252,3.80661C17.871,18.5389,18.88847,15.98264,20.29254,13.71928Z" style="fill:#eb6b48"/></svg>

<svg xmlns="http://www.w3.org/2000/svg" viewBox="0 0 32 32"><path d="M2.99 27.62c.558 2.858 2.247 3.211 4.073 3.258a4.899 4.899 0 012.227-4.072c-2.982 1.062-5.239 1.474-6.3.814z" fill="#434c4b"/><path d="M4.402 13.72c-.063.045-.113.095-.174.14a5.494 5.494 0 012.124 5.488c-.48 2.976-2.922 5.056-5.454 4.647a3.94 3.94 0 01-.651-.186A5.604 5.604 0 002.99 27.62c1.06.66 3.317.248 6.299-.814a5.385 5.385 0 01-.652-6.63v-.023a8.615 8.615 0 015.321-7.384c-.015-1.863.756-3.875 2.041-6.272V1.122c-4.864 0-8.945 4.542-11.598 12.597z" fill="#e56142"/><path d="M4.228 13.86c-.319.24-.61.487-.889.74a4.785 4.785 0 011.567 4.514C4.493 21.667 2.399 23.451.228 23.1c-.045-.007-.084-.027-.128-.036a8.2 8.2 0 00.147.745 3.94 3.94 0 00.651.186c2.532.409 4.973-1.671 5.454-4.647a5.494 5.494 0 00-2.124-5.487z" fill="#505957"/><path d="M4.906 19.114A4.785 4.785 0 003.339 14.6 9.44 9.44 0 00.1 23.064c.044.009.083.03.128.036 2.171.351 4.265-1.433 4.678-3.986z" fill="#e56142"/><path d="M13.96 12.77a8.615 8.615 0 00-5.322 7.383v.023c1.158-2.082 3.54-4.16 7.362-5.835V6.497c-1.285 2.397-2.056 4.41-2.04 6.272z" fill="#505957"/><path d="M8.299 25.364l3.163.682L16 30.39V14.34c-7.153 3.135-9.31 7.676-7.701 11.023z" fill="#eb6b48"/><path d="M16 30.39l-4.538-4.344-3.163-.682a5.753 5.753 0 00.99 1.442c1.28 2.413 4.562 3.584 6.711 3.584z" fill="#434c4b"/><path d="M9.805 19.421c-1.163 0-2.151 1.13-2.55 2.718a8.256 8.256 0 005.293 1.54c0-2.351-1.228-4.258-2.743-4.258z" fill="#f57552"/><path d="M7.063 23.68c0 2.352 1.228 4.258 2.742 4.258s2.743-1.906 2.743-4.258a8.256 8.256 0 01-5.293-1.541 6.328 6.328 0 00-.192 1.54z" fill="#ffd96c"/><path d="M8.299 24.362c0 1.23.635 2.227 1.418 2.227s1.419-.997 1.419-2.227a3.346 3.346 0 00-.094-.776 8.44 8.44 0 01-2.409-.643 3.042 3.042 0 00-.334 1.42z" fill="#373f3f"/><circle cx="9.705" cy="24.312" r=".632" fill="#edeeee"/><path d="M7.959 10.136c.59-.787-4.337-5.831-5.885-6.157-.622 0 1.868 3.744 4.67 7.487.03-.471.378-.919 1.215-1.33z" fill="#f57552"/><path d="M11.707 13.72c-1.31-2.113-2.957-3.97-3.748-3.584-.837.411-1.186.859-1.215 1.33a119.425 119.425 0 002.864 3.681c.608-1.115 1.321-1.496 2.1-1.428z" fill="#5c6664"/><path d="M11.707 13.72c-.778-.07-1.49.312-2.099 1.427 1.77 2.179 3.263 3.807 3.673 3.807.848-.415-.17-2.971-1.574-5.235z" fill="#f57552"/><path d="M29.01 27.62c-.558 2.858-2.247 3.211-4.073 3.258a4.899 4.899 0 00-2.227-4.072c2.982 1.062 5.239 1.474 6.3.814z" fill="#373f3f"/><path d="M27.598 13.72c.063.045.113.095.174.14a5.494 5.494 0 00-2.124 5.488c.48 2.976 2.922 5.056 5.454 4.647a3.94 3.94 0 00.651-.186 5.604 5.604 0 01-2.744 3.811c-1.06.66-3.317.248-6.299-.814a5.385 5.385 0 00.652-6.63v-.023a8.615 8.615 0 00-5.321-7.384c.015-1.863-.756-3.875-2.041-6.272V1.122c4.864 0 8.945 4.542 11.598 12.597z" fill="#dd583e"/><path d="M27.772 13.86c.319.24.61.487.889.74a4.785 4.785 0 00-1.567 4.514c.413 2.553 2.507 4.337 4.678 3.986.045-.007.084-.027.128-.036a8.2 8.2 0 01-.147.745 3.94 3.94 0 01-.651.186c-2.532.409-4.973-1.671-5.454-4.647a5.494 5.494 0 012.124-5.487z" fill="#434c4b"/><path d="M27.094 19.114a4.785 4.785 0 011.567-4.514 9.44 9.44 0 013.239 8.464c-.044.009-.083.03-.128.036-2.17.351-4.265-1.433-4.678-3.986z" fill="#dd583e"/><path d="M18.04 12.77a8.615 8.615 0 015.322 7.383v.023c-1.158-2.082-3.54-4.16-7.362-5.835V6.497c1.285 2.397 2.056 4.41 2.04 6.272z" fill="#434c4b"/><path d="M23.701 25.364l-3.163.682L16 30.39V14.34c7.153 3.135 9.31 7.676 7.701 11.023z" fill="#e56142"/><path d="M16 30.39l4.538-4.344 3.163-.682a5.753 5.753 0 01-.99 1.442C21.43 29.219 18.148 30.39 16 30.39z" fill="#373f3f"/><path d="M22.195 19.421c1.163 0 2.151 1.13 2.55 2.718a8.256 8.256 0 01-5.293 1.54c0-2.351 1.228-4.258 2.743-4.258z" fill="#eb6b48"/><path d="M24.937 23.68c0 2.352-1.228 4.258-2.742 4.258s-2.743-1.906-2.743-4.258a8.256 8.256 0 005.293-1.541 6.328 6.328 0 01.192 1.54z" fill="#ffd04d"/><path d="M23.701 24.362c0 1.23-.635 2.227-1.418 2.227s-1.419-.997-1.419-2.227a3.346 3.346 0 01.094-.776 8.44 8.44 0 002.409-.643 3.042 3.042 0 01.334 1.42z" fill="#2b3332"/><circle cx="22.295" cy="24.312" r=".632" fill="#e3e5e5"/><path d="M24.041 10.136c-.59-.787 4.337-5.831 5.885-6.157.622 0-1.868 3.744-4.67 7.487-.03-.471-.378-.919-1.215-1.33z" fill="#eb6b48"/><path d="M20.293 13.72c1.31-2.113 2.957-3.97 3.749-3.584.836.411 1.185.859 1.214 1.33a119.425 119.425 0 01-2.864 3.681c-.608-1.115-1.321-1.496-2.1-1.428z" fill="#505957"/><path d="M20.293 13.72c.778-.07 1.49.312 2.099 1.427-1.77 2.179-3.263 3.807-3.673 3.807-.848-.415.17-2.971 1.574-5.235z" fill="#eb6b48"/></svg>
